ix/convert-3d-cube_bulk.svg

<svg viewBox="0 0 24 24" fill="none" xmlns="http://www.w3.org/2000/svg" height="1em" width="1em">
  <path opacity="0.4" d="M15.0002 22.75C14.7302 22.75 14.4802 22.6 14.3502 22.37C14.2202 22.14 14.2202 21.85 14.3602 21.62L15.4102 19.87C15.6202 19.51 16.0802 19.4 16.4402 19.61C16.8002 19.82 16.9102 20.28 16.7002 20.64L16.4302 21.09C19.1902 20.44 21.2602 17.96 21.2602 15C21.2602 14.59 21.6002 14.25 22.0102 14.25C22.4202 14.25 22.7602 14.59 22.7602 15C22.7502 19.27 19.2702 22.75 15.0002 22.75Z" fill="#292D32"/>
  <path opacity="0.4" d="M2 9.75C1.59 9.75 1.25 9.41 1.25 9C1.25 4.73 4.73 1.25 9 1.25C9.27 1.25 9.51999 1.4 9.64999 1.63C9.77999 1.86 9.78 2.15 9.64 2.38L8.59 4.13C8.38 4.49001 7.92 4.60001 7.56 4.39001C7.2 4.18001 7.09 3.71999 7.3 3.35999L7.57001 2.90997C4.81001 3.55997 2.74001 6.04 2.74001 9C2.75001 9.41 2.41 9.75 2 9.75Z" fill="#292D32"/>
  <path d="M10.6709 13.8499L7.53093 12.1599C7.20093 11.9799 6.80093 11.9799 6.47093 12.1599L3.33093 13.8499C3.10093 13.9699 2.96094 14.2199 2.96094 14.4899C2.96094 14.7599 3.10093 15.0099 3.33093 15.1299L6.47093 16.8199C6.64093 16.9099 6.82093 16.9499 7.00093 16.9499C7.18093 16.9499 7.36093 16.9099 7.53093 16.8199L10.6709 15.1299C10.9009 15.0099 11.0409 14.7599 11.0409 14.4899C11.0409 14.2199 10.8909 13.9799 10.6709 13.8499Z" fill="#292D32"/>
  <path d="M5.95023 17.4099L3.03023 15.9499C2.81023 15.8399 2.55023 15.8499 2.33023 15.9799C2.12023 16.1099 1.99023 16.3399 1.99023 16.5899V19.3499C1.99023 19.8299 2.25022 20.2599 2.68022 20.4699L5.60023 21.9299C5.70023 21.9799 5.81023 22.0099 5.92023 22.0099C6.05023 22.0099 6.18023 21.9699 6.30023 21.8999C6.51023 21.7699 6.64023 21.5399 6.64023 21.2899V18.5299C6.65023 18.0499 6.38023 17.6199 5.95023 17.4099Z" fill="#292D32"/>
  <path d="M11.6596 15.9799C11.4496 15.8499 11.1896 15.8399 10.9596 15.9499L8.0396 17.4099C7.6096 17.6199 7.34961 18.0499 7.34961 18.5299V21.2899C7.34961 21.5399 7.47961 21.7699 7.68961 21.8999C7.80961 21.9699 7.93961 22.0099 8.06961 22.0099C8.17961 22.0099 8.2896 21.9799 8.3896 21.9299L11.3096 20.4699C11.7396 20.2599 11.9996 19.8299 11.9996 19.3499V16.5899C11.9996 16.3399 11.8696 16.1099 11.6596 15.9799Z" fill="#292D32"/>
  <path d="M20.6709 3.82989L17.5309 2.13988C17.2009 1.95988 16.8009 1.95988 16.4709 2.13988L13.3309 3.82989C13.1009 3.94989 12.9609 4.19984 12.9609 4.46984C12.9609 4.73984 13.1009 4.98985 13.3309 5.10985L16.4709 6.79986C16.6409 6.88986 16.8209 6.92986 17.0009 6.92986C17.1809 6.92986 17.3609 6.88986 17.5309 6.79986L20.6709 5.10985C20.9009 4.98985 21.0409 4.73984 21.0409 4.46984C21.0409 4.18984 20.8909 3.94989 20.6709 3.82989Z" fill="#292D32"/>
  <path d="M15.9502 7.37987L13.0302 5.91985C12.8102 5.80985 12.5502 5.81988 12.3302 5.94988C12.1202 6.07988 11.9902 6.30987 11.9902 6.55987V9.31987C11.9902 9.79987 12.2502 10.2299 12.6802 10.4399L15.6002 11.8999C15.7002 11.9499 15.8102 11.9798 15.9202 11.9798C16.0502 11.9798 16.1802 11.9399 16.3002 11.8699C16.5102 11.7399 16.6402 11.5099 16.6402 11.2599V8.49987C16.6502 8.01987 16.3802 7.58987 15.9502 7.37987Z" fill="#292D32"/>
  <path d="M21.6596 5.94988C21.4496 5.81988 21.1896 5.80985 20.9596 5.91985L18.0396 7.37987C17.6096 7.58987 17.3496 8.01987 17.3496 8.49987V11.2599C17.3496 11.5099 17.4796 11.7399 17.6896 11.8699C17.8096 11.9399 17.9396 11.9798 18.0696 11.9798C18.1796 11.9798 18.2896 11.9499 18.3896 11.8999L21.3096 10.4399C21.7396 10.2299 21.9996 9.79987 21.9996 9.31987V6.55987C21.9996 6.30987 21.8696 6.07988 21.6596 5.94988Z" fill="#292D32"/>
</svg>

<svg viewBox="0 0 24 24" fill="none" xmlns="http://www.w3.org/2000/svg" height="1em" width="1em">
  <path opacity=".4" d="M15 22.75a.745.745 0 0 1-.64-1.13l1.05-1.75c.21-.36.67-.47 1.03-.26.36.21.47.67.26 1.03l-.27.45c2.76-.65 4.83-3.13 4.83-6.09 0-.41.34-.75.75-.75s.75.34.75.75c-.01 4.27-3.49 7.75-7.76 7.75Zm-13-13c-.41 0-.75-.34-.75-.75 0-4.27 3.48-7.75 7.75-7.75a.745.745 0 0 1 .64 1.13L8.59 4.13c-.21.36-.67.47-1.03.26a.749.749 0 0 1-.26-1.03l.27-.45C4.81 3.56 2.74 6.04 2.74 9a.74.74 0 0 1-.74.75Z" fill="#292D32"/>
  <path d="m10.67 13.85-3.14-1.69c-.33-.18-.73-.18-1.06 0l-3.14 1.69c-.23.12-.37.37-.37.64s.14.52.37.64l3.14 1.69c.17.09.35.13.53.13.18 0 .36-.04.53-.13l3.14-1.69c.23-.12.37-.37.37-.64s-.15-.51-.37-.64Zm-4.72 3.56-2.92-1.46a.718.718 0 0 0-1.04.64v2.76c0 .48.26.91.69 1.12l2.92 1.46c.1.05.21.08.32.08.13 0 .26-.04.38-.11.21-.13.34-.36.34-.61v-2.76c.01-.48-.26-.91-.69-1.12Zm5.71-1.43a.725.725 0 0 0-.7-.03l-2.92 1.46c-.43.21-.69.64-.69 1.12v2.76c0 .25.13.48.34.61.12.07.25.11.38.11.11 0 .22-.03.32-.08l2.92-1.46c.43-.21.69-.64.69-1.12v-2.76c0-.25-.13-.48-.34-.61Zm9.01-12.15-3.14-1.69c-.33-.18-.73-.18-1.06 0l-3.14 1.69c-.23.12-.37.37-.37.64s.14.52.37.64l3.14 1.69c.17.09.35.13.53.13.18 0 .36-.04.53-.13l3.14-1.69c.23-.12.37-.37.37-.64 0-.28-.15-.52-.37-.64Zm-4.72 3.55-2.92-1.46a.717.717 0 0 0-1.04.64v2.76c0 .48.26.91.69 1.12l2.92 1.46c.1.05.21.08.32.08.13 0 .26-.04.38-.11.21-.13.34-.36.34-.61V8.5c.01-.48-.26-.91-.69-1.12Zm5.71-1.43a.725.725 0 0 0-.7-.03l-2.92 1.46c-.43.21-.69.64-.69 1.12v2.76c0 .25.13.48.34.61.12.07.25.11.38.11.11 0 .22-.03.32-.08l2.92-1.46c.43-.21.69-.64.69-1.12V6.56c0-.25-.13-.48-.34-.61Z" fill="#292D32"/>
</svg>
